X:979
T:Reel Beatrice
T:Reel B\'eatrice
R:reel
H:This French Canadian tune is derived from an Italian polka called "Oggi Nevica"
H:Also played in Gm or Bm
A:Quebec
Z:id:hn-reel-979
M:C|
L:1/8
K:Am
A,B, |: C2A,C EA,CE | AEED E2AB | c2Ac eAce | aeed e2ab |
c'bag fedc | BddB d3f | ~e3f edcB |1 A3A, A,3B, :|2 A3A, A,3a ||
|: a2fa bf~f2 | fe^de ae~e2 | e^def e=ddB | cdcB A3a |
a2fa bf~f2 | fe^de ae~e2 | e^def e=dcB |1 A3A, A,3a :|2 A2AB A3B ||
|: cG~G2 EGce | cG~G2 EGce | dB~B2 GBdB | cc'ba gfed |
cG~G2 EGce | cG~G2 EGce | dB~B2 GBdB |1 cBcd c2AB :|2 cBcd c2 || 

